X: 1
T: Leaving The Battlefield
M: 4/4
L: 1/8
R: hornpipe
K: Dmaj
E2|:A2 A2 BA B2|EF E2 E2 (3DEF|G2 GF GAB=c|df d2 dB G2|
AB A2 BA B2|EF E2 E2 cd|ef e2 dc b2|1 A4 A2 E2:|2 A4 A2 Bc||
de d2 dc d2|ef e2 ef g2|de d2 dc B2|EF E2 E2 Bc|
de d2 dc d2|ef e2 ef g2|df d2 BG B2|1 A4 A2 Bc:|2 A4 A4||
